X:1
T:Upon a Summer’s day
T:William Byrd (c.1540-1623)
T:The second part
T:Upon a Summer’s day
T:© Choral Public Domain Library 2010
T:© Choral Public Domain Library 2010
T:© Choral Public Domain Library 2010
T:© Choral Public Domain Library 2010
T:© Choral Public Domain Library 2010
T:© Choral Public Domain Library 2010
C:William Byrd (c.1540-1623)
Z:The second part
Z:© Choral Public Domain Library 2010
%%score [ 1 2 3 ]
L:1/8
M:4/4
K:C
V:1 treble nm="Soprano" snm="S."
V:2 treble nm="Alto" snm="A."
V:3 treble-8 transpose=-12 nm="Tenor" snm="T."
V:1
 [A,f]2 |[M:4/2] z16 | z8 z4 C4 | F2 G2 A2 B2 c4 G4 | A4 F4 E4 z4 | z4 z2 A4 G4 F2 | %6
w: ||Up-|on a Sum- mer’s day love|went to swim,|and cast him-|
 E2 C2 E2 F2 G2 E2 D4 | c4 B2 A2 B4 G4 | ^F4 z2 A2 A2 A2 c4 | B4 A4 z2 A2 e4 | d4 c4 z2 G2 A2 B2 | %11
w: self in- to a Sea of tears,|in- to a Sea of|tears, the clouds called in|their light, and Heaven|waxed dim, and sighs did|
 c2 G2 c4 B4 A2 G2- | G2 F2 E4 z2 G2 A2 B2 | c2 A2 e8 d4 | c2 B2 A4 z2 c2 f4 | e4 d8 c4 | B8 z8 | %17
w: raise a tem- pest, caus- ing|_ _ fears, and sighs did|raise a tem- pest|caus- ing fears, a tem-|pest caus- ing|fears.|
 z2 B2 c2 B2 B4 z2 d2- | d2 B4 G2 A2 B2 G4- | G4 z2 G4 E4 C2 | F2 G2 C4 z4 z2 G2- | %21
w: The na- ked boy, could|_ not so wield his arms,|_ could not so|wield his arms, but|
 G2 B4 ^c2 d4 A2 B2 | c6 B2 A4 A4 | B16 | z4 z2 c2 A6 B2 | c2 G2 c6 B2 A2 A2 | %26
w: _ that the waves were _|ma- sters of his|might,|and threat- ened|him to work far great- er|
 B3 A BcdB ^c2 d4 c2 | d8 z2 d2 c2 A2 | B4 ^c4 d4 B4 | A4 A4 G8 | z2 G2 E2 C2 F4 G2 A2- | %31
w: harms, far great- * * * * * er|harms, if he de-|vi- sed not to|scape by flight,|if he de- vi- sed not|
 A2 D2 EF G4 ^FE F4 | !fermata!G16 || z16 | z4 G4 G2 G2 c4 | B2 d4 c2 B4 B4 | A4 z2 A2 A2 B2 G4- | %37
w: _ to scape _ _ by _ _|flight.||Then for a boat|his qui- ver stood in-|stead, his bow un- bent|
 G4 z2 G4 A3 G F2 | E4 E4 ^F8 | z2 E2 A2 G2 A2 B2 c2 B2 | A2 G4 A4 ^G2 A4- | A4 z4 A,4 A4- | %42
w: _ did serve him _|for a mast,|where- by to sail his cloth of|veil he spread, he spread,|_ where- by|
 A2 G2 A2 B2 c2 A2 B4- | B2 A4 ^G2 A8 | z8 z4 z2 A2 | c2 G2 B4 E2 A4 G2 | G4 F2 E2 z2 B2 d2 A2 | %47
w: _ to sail his cloth of veil|_ he _ spread,|his|shafts for oars on ei- ther|board he cast, his shafts for|
 c4 B2 B4 A2 c2 B2 | B4 A2 A4 G2 B2 A2- | AG G4 ^F2 G8 | z2 d2 B2 e2 d6 c2 | B3 A G2 E2 G4 z2 c2 | %52
w: oars on ei- ther board he|cast, on ei- ther board he|_ _ _ _ cast,|from ship- wrack safe this|wag got thus to shore, from|
 B2 e2 d2 B2 c3 d e3 d | c2 B2 A2 G2 A4 z2 d2 | B4 z2 B2 G4 z2 c2 | A2 B2 c2 A2 B4 A2 G2 | %56
w: ship- wrack safe this wag got thus to|shore, got thus to shore, and|sware, and sware, to|bathe in lov- ers’ tears no _|
 A4 z4 z2 d2 B2 c2 | d2 B2 c2 A2 B4 G4 | B4 A2 G4 ^FE F4 | !fermata!G16 |] %60
w: more, to bathe in|lov- ers’ tears no more, in|lov- ers’ tears no _ _|more.|
V:2
 [E,c]2 |[M:4/2] z8 z4 G,4 | C2 D2 E2 F2 G4 E4 | D4 D4 C3 D E4 | z4 A4 G6 D2 | %5
w: |Up-|on a Sum- mer’s day love|went to swim, _ _|and cast him-|
 F2 E2 D2 A,2 C2 B,2 A,4 | C8 B,6 A,2 | G,2 G4 F2 E2 D4 ^C2 | D8 z2 D2 E2 E2 | G4 F4 E4 E2 A2- | %10
w: self in- to a Sea of tears,|and cast him-|self in- to a Sea of|tears, the clouds called|in their light, and Heaven|
 A2 ^G2 A2 E2 =G4 F4 | E4 z2 C2 D2 E2 F2 D2 | A4 G4 z4 z2 D2 | E2 F2 G2 E2 c4 B4 | %14
w: _ waxed dim and heaven waxed|dim, and sighs did raise a|tem- pest, and|sighs did raise a tem- pest|
 A2 G4 ^F2 G4 z2 A2 | c4 B2 A3 G G4 ^F2 | G8 z2 D2 E2 D2 | D4 z2 D2 E2 D2 D4 | G4 E4 D4 E3 D | %19
w: caus- ing _ fears, a|tem- pest caus- ing _ _|fears. The na- ked|boy, the na- ked boy|could not so wield _|
 CB, C4 B,2 C4 z4 | z2 C4 E4 ^F2 G4 | E4 E4 D4 F4- | F2 E2 C2 G4 ^FE F4 | G8 z2 D2 B,3 C | %24
w: _ _ _ his arms,|but that the waves|were ma- sters of|_ his might, of his _ _|might, and threat- ened|
 D2 A,2 E4 C2 F4 D2 | E8 z2 G2 E3 ^F | G2 D2 G6 F2 E2 E2 | D4 z2 G2 F2 D2 E2 ^F2 | G4 E4 D4 D3 E | %29
w: him to work far great- er|harms, and threat- ened|him to work far great- er|harms, if he de- vi- sed|not to scape by _|
 ^FGAG FE F2 G4 z2 D2 | B,2 G,2 C4 D4 E2 C2 | A,2 B,2 C3 B, A,4 A,4 | !fermata!B,16 || %33
w: _ _ _ _ _ _ _ flight, if|he de- vi- sed not to|scape by flight, to scape by|flight.|
 D4 D2 D2 G4 E2 G2- | G2 F2 E2 E2 D4 z2 E2 | G4 D2 E4 D2 G4 | ^F4 z2 F2 F2 G2 E4 | %37
w: Then for a boat his qui-|* ver stood in- stead, his|qui- ver stood in- *|stead, his bow un- bent,|
 E4 G3 F E4 F2 D2- | D2 ^CB, C4 D4 z2 A,2 | D2 ^C2 D2 E2 F4 E2 E2- | E2 D2 E2 A,2 D6 ^C2 | %41
w: did serve _ _ him for|_ a _ _ mast, where-|by to sail his cloth of veil|_ he spread, where- by to|
 D2 E2 F3 D E4 D2 ^C2 | D2 B,2 A,2 ^G,2 A,4 E,2 =G,2- | G,2 A,2 E,4 z2 E2 F2 C2 | %44
w: sail his cloth of veil he _|spread, his cloth of veil he spread,|_ he spread, his shafts for|
 E4 C2 F4 E2 D2 D2 | E4 z2 D2 G2 C2 E4 | B,2 D4 C2 B,2 E2 D4 | z4 z2 D2 G2 C2 E4 | %48
w: oars on ei- ther board he|cast, his shafts for oars|on ei- ther board he cast,|his shafts for oars|
 D2 D4 A,2 C2 B,2 G,2 C2- | C2 B,2 A,4 G,8- | G,8 z2 D2 B,2 E2 | D6 C2 B,3 A, G,2 E,2 | %52
w: on ei- ther board he cast, he|_ _ _ cast,|_ from ship- wrack|safe this wag got thus to|
 G,4 z2 G2 E2 A2 G3 F | E2 D2 E^F G4 FE F4 | z2 G2 D4 z2 E2 C4 | z2 G2 E2 ^F2 G2 E2 F2 G2- | %56
w: shore, from ship- wrack safe this|wag got thus _ _ to _ shore,|and sware, and sware|to bathe in lov- ers’ tears no|
 G2 ^F2 G3 E =F2 D2 E2 E2 | D4 z4 z2 D2 B,2 C2 | D2 B,2 C4 A,8 | !fermata!B,16 |] %60
w: _ _ more, in lov- ers’ tears no|more, to bathe in|lov- ers’ tears no|more.|
V:3
 [Cg]2 |[M:4/2] G4 c2 d2 e2 f2 g4 | e4 c2 d2 c8 | z8 z4 C4 | F2 G2 A2 B2 c4 G4 | A4 F4 E4 z4 | %6
w: |Up- on a Sum- mer’s day,|love went to swim,|up-|on a Sum- mer’s day, love|went to swim,|
 A8 G6 F2 | E2 C2 E2 F2 G4 E4 | D8 z8 | z4 z2 A2 A2 A2 c4 | B4 A2 A2 e4 d4 | c8 z2 G2 A2 B2 | %12
w: and cast him-|self in- to a Sea of|tears,|the clouds called in|their light, and Heaven waxed|dim, and sighs did|
 c2 A2 c4 B4 A2 G2- | G2 F2 E4 z4 z2 G2 | A2 B2 c2 A2 e4 d4 | c4 G3 A B4 A4 | G4 z2 G2 A2 G2 G4 | %17
w: raise a tem- pest, caus- ing|_ _ fears, and|sighs did raise a tem- pest|caus- ing _ _ _|fears. The na- ked boy,|
 z2 G2 A2 G2 G8 | z8 z2 G4 E2- | E2 C2 F2 G2 C4 c4 | d2 e2 g4 c2 d2 e4 | c2 G4 A2 B2 G2 d4 | %22
w: the na- ked boy|could not|_ so wield his arms, but|that the waves were _ mas-|ters of his _ _ might,|
 A2 c4 G2 d8 | z2 G2 E3 F G2 D2 G4 | F4 E2 C2 F2 D2 F2 G2 | C2 c2 A3 B c2 G2 c2 d2 | G6 G2 A8 | %27
w: of his _ might,|and threat- ened him to work|far great- er harms, far great- er|harms, and threat- ened him to work far|great- er harms,|
 z2 d2 B2 G2 A2 B2 c2 d2 | G4 A4 ^F2 G3 ABc | d4 z2 d2 B2 G2 c2 B2 | G4 A4 D4 C2 F2- | %31
w: if he de- vi- sed not to|scape by flight, by _ _ _|flight, if he de- vi- sed|not to scape by flight,|
 F2 G2 C4 D8 | !fermata!G16 || z4 G4 G2 G2 c4 | B2 d4 c2 B2 B2 A4 | G2 B4 A2 G6 G2 | %36
w: _ to scape by|flight.|Then for a boat|his qui- ver stood in- stead,|his qui- ver stood in-|
 d4 z2 d2 d2 G2 c4 | c4 c8 d4 | A4 A4 D8 | z8 z2 D2 A2 G2 | A2 B2 c4 B4 A4 | z2 A4 d4 ^c2 d2 e2 | %42
w: stead, his bow un- bent,|did serve him|for a mast,|where- by to|sail his cloth of veil,|where- by to sail his|
 f2 d2 e4 z2 e2 g2 d2 | e2 c2 B4 A4 z2 A2 | c2 G2 A4 D2 G4 F2 | E2 E2 G4 z2 A2 c4 | %46
w: cloth of veil, his cloth of|veil he _ spread, his|shafts for oars on ei- ther|board he cast, his shafts|
 G4 A4 E2 G4 F2 | E2 C2 G4 z4 z2 E2 | G2 D2 F4 E2 E4 C2 | F2 G2 D4 z2 d2 B2 e2 | d6 c2 B3 A G2 C2 | %51
w: for oars on ei- ther|board he cast, his|shafts for oars on ei- ther|board he cast, from ship- wrack|safe this wag got thus to|
 G8 z2 d2 B2 e2 | d3 c B2 G2 A2 F2 c4- | c2 G2 c2 e2 d4 d4 | G4 z2 G2 E4 z2 A2 | %55
w: shore, from ship- wreck|safe this wag got thus to shore,|_ got thus to shore, and|sware, and sware to|
 ^F2 G2 A2 D2 G2 G2 D4 | z2 d2 B2 c2 d2 B2 G2 A2 | ^F2 G2 A2 F2 G6 E2 | D4 C4 D8 | !fermata!G16 |] %60
w: bathe in lov- ers’ tears no more,|to bathe in lov- ers’ tears, to|bathe in lov- ers’ tears no|more, _ no|more.|

